svgs/duotone/square-phone-flip.svg

<svg xmlns="http://www.w3.org/2000/svg" viewBox="0 0 448 512"><!--! Font Awesome Pro 6.3.0 by @fontawesome - https://fontawesome.com License - https://fontawesome.com/license (Commercial License) Copyright 2023 Fonticons, Inc. --><defs><style>.fa-secondary{opacity:.4}</style></defs><path class="fa-primary" d="M105.5 303.6l54.24-23.25c6.391-2.766 13.9-.9063 18.24 4.484l22.02 26.91c34.63-17 62.77-45.14 79.77-79.75l-26.91-22.05c-5.375-4.391-7.211-11.83-4.492-18.22l23.27-54.28c3.047-6.953 10.59-10.77 17.93-9.062l50.38 11.63c7.125 1.625 12.11 7.891 12.11 15.22c0 126.1-102.6 228.8-228.7 228.8c-7.336 0-13.6-4.984-15.24-12.11l-11.62-50.39C94.71 314.2 98.5 306.6 105.5 303.6z"/><path class="fa-secondary" d="M384 32H64C28.65 32 0 60.65 0 96v320c0 35.35 28.65 64 64 64h320c35.35 0 64-28.65 64-64V96C448 60.65 419.3 32 384 32zM123.3 384c-7.336 0-13.6-4.984-15.24-12.11l-11.62-50.39C94.71 314.2 98.5 306.6 105.5 303.6l54.24-23.25c6.391-2.766 13.9-.9062 18.24 4.484l22.02 26.91c34.63-17 62.77-45.14 79.77-79.75l-26.91-22.05c-5.375-4.391-7.211-11.83-4.492-18.22l23.27-54.28c3.047-6.953 10.59-10.77 17.93-9.062l50.38 11.62c7.125 1.625 12.11 7.891 12.11 15.22C352 281.4 249.4 384 123.3 384z"/></svg>

<svg xmlns="http://www.w3.org/2000/svg" viewBox="0 0 448 512"><!-- Font Awesome Pro 6.0.0-alpha2 by @fontawesome - https://fontawesome.com License - https://fontawesome.com/license (Commercial License) --><defs><style>.fa-secondary{opacity:.4}</style></defs><path d="M384 32H64C28.652 32 0 60.654 0 96V416C0 451.346 28.652 480 64 480H384C419.346 480 448 451.346 448 416V96C448 60.654 419.346 32 384 32ZM123.26 384C115.924 384 109.656 379.016 108.023 371.891L96.398 321.5C94.711 314.203 98.5 306.625 105.453 303.625L159.697 280.375C166.088 277.609 173.596 279.469 177.939 284.859L199.963 311.766C234.588 294.766 262.736 266.625 279.729 232.016L252.814 209.967C247.439 205.576 245.604 198.139 248.322 191.748L271.588 137.467C274.635 130.514 282.174 126.701 289.518 128.404L339.895 140.029C347.02 141.654 352.004 147.92 352.004 155.248C352.004 281.391 249.385 384 123.26 384Z" class="fa-secondary"/><path d="M105.454 303.625L159.698 280.375C166.088 277.609 173.596 279.468 177.94 284.859L199.963 311.765C234.588 294.765 262.737 266.625 279.729 232.015L252.815 209.966C247.44 205.576 245.604 198.138 248.323 191.748L271.588 137.466C274.635 130.513 282.174 126.7 289.518 128.404L339.895 140.029C347.02 141.654 352.004 147.919 352.004 155.247C352.004 281.39 249.385 384 123.26 384C115.924 384 109.657 379.016 108.024 371.891L96.399 321.5C94.711 314.203 98.5 306.625 105.454 303.625Z" class="fa-primary"/></svg>
